X: 3707
T: The Nurseryman
P: Miss McPherson Grant's Jig - of Ballindalloch
C:Wm. Marshall
B:RSCDS 37-7
Z:Anselm Lingnau <anselm@strathspey.org>
R:Jig (8x32)
M:6/8
L:1/8
K:A
|:E|"A"E2 A A2 F|"E"GAB Bcd|"A"c2 E AGA|"E"B3 E3|"A"E2 e e2 c|
  "Bm"dcd "E7"Bcd|1 "A"cde "D"fed|"A"cBA "E"GF:|2 "A"cBA "E7"EFG|"A"A3 A2||
E|"A"C2 E "A7"A2 =G|"D"FEF D2 F|"Bm"d2c "B7"BcA|"E"G3 E2 E|"D"FGA "E"Bcd|
  "A"cde fga|"E"gfe "B7"Bc^d|"E"e3 e2z|"D"f2 D fed|"A"e2 c ecA|
  "D"FGA "B7"BcA|"E"G3 E3|"D"F2 d "A/c#"E2 c|"E7"D2 B "A"C2 e|\
  cBA "E7"EFG|"A"A3 A,2|]
%%center Book37/3707-Nurseryman-AL.abc

%%sep 1 1 500
%%sep 1 1 500

